resources/haticons/SVG/sigma.svg

<!-- Generated by IcoMoon.io -->
<svg version="1.1" xmlns="http://www.w3.org/2000/svg" width="24" height="24" viewBox="0 0 24 24">
<title>sigma</title>
<path d="M22.069 17.22l1.040-2.22h0.891l-1.5 9h-22.5v-1.74l7.771-9.169-7.771-7.771v-5.32h22.969l1.031 6h-0.806l-0.439-0.911c-0.828-1.719-1.451-2.089-3.256-2.089h-15.516l8.275 8.275-6.971 8.225h12.712c2.719 0 3.437-0.974 4.069-2.28z"></path>
</svg>

<svg xmlns="http://www.w3.org/2000/svg" width="24" height="24"><path d="M22.069 17.22l1.04-2.22H24l-1.5 9H0v-1.74l7.771-9.169L0 5.32V0h22.969L24 6h-.806l-.439-.911C21.927 3.37 21.304 3 19.499 3H3.983l8.275 8.275L5.287 19.5h12.712c2.719 0 3.437-.974 4.069-2.28z"/></svg>
